dist/svgs/unicons/line/dice-six.svg

<svg xmlns="http://www.w3.org/2000/svg" viewBox="0 0 24 24"><path d="M9 11a1 1 0 101 1 1 1 0 00-1-1zm0 4a1 1 0 101 1 1 1 0 00-1-1zm0-8a1 1 0 101 1 1 1 0 00-1-1zm6 0a1 1 0 101 1 1 1 0 00-1-1zm2-5H7a5 5 0 00-5 5v10a5 5 0 005 5h10a5 5 0 005-5V7a5 5 0 00-5-5zm3 15a3 3 0 01-3 3H7a3 3 0 01-3-3V7a3 3 0 013-3h10a3 3 0 013 3zm-5-6a1 1 0 101 1 1 1 0 00-1-1zm0 4a1 1 0 101 1 1 1 0 00-1-1z"/></svg>

<svg xmlns="http://www.w3.org/2000/svg" viewBox="0 0 24 24"><path d="M9,11a1,1,0,1,0,1,1A1,1,0,0,0,9,11Zm0,4a1,1,0,1,0,1,1A1,1,0,0,0,9,15ZM9,7a1,1,0,1,0,1,1A1,1,0,0,0,9,7Zm6,0a1,1,0,1,0,1,1A1,1,0,0,0,15,7Zm2-5H7A5,5,0,0,0,2,7V17a5,5,0,0,0,5,5H17a5,5,0,0,0,5-5V7A5,5,0,0,0,17,2Zm3,15a3,3,0,0,1-3,3H7a3,3,0,0,1-3-3V7A3,3,0,0,1,7,4H17a3,3,0,0,1,3,3Zm-5-6a1,1,0,1,0,1,1A1,1,0,0,0,15,11Zm0,4a1,1,0,1,0,1,1A1,1,0,0,0,15,15Z"/></svg>
